Papirus-Dark/24x24/actions/svn-update.svg

<?xml version="1.0" encoding="UTF-8" standalone="no"?>
<!--Created with Inkscape (http://www.inkscape.org/)-->
<svg xmlns:dc="http://purl.org/dc/elements/1.1/" xmlns:cc="http://creativecommons.org/ns#" xmlns:rdf="http://www.w3.org/1999/02/22-rdf-syntax-ns#" xmlns:svg="http://www.w3.org/2000/svg" xmlns="http://www.w3.org/2000/svg" xmlns:sodipodi="http://sodipodi.sourceforge.net/DTD/sodipodi-0.dtd" xmlns:inkscape="http://www.inkscape.org/namespaces/inkscape" width="24" height="24" id="svg3049" version="1.1" inkscape:version="0.91 r13725" sodipodi:docname="svn-update.svg" inkscape:export-filename="/home/uri/.kde/share/icons/NITRUX-KDE/16x16/actions/view-right-new.png" inkscape:export-xdpi="30" inkscape:export-ydpi="30" viewBox="0 0 24 24">
    <defs id="defs3051">
        <style type="text/css" id="current-color-scheme">
            .ColorScheme-Text { color:#4d4d4d; } .ColorScheme-Background { color:#eff0f1; } .ColorScheme-Highlight { color:#3daee9; } .ColorScheme-ViewText { color:#31363b; } .ColorScheme-ViewBackground { color:#fcfcfc; } .ColorScheme-ViewHover { color:#93cee9; } .ColorScheme-ViewFocus{ color:#3daee9; } .ColorScheme-ButtonText { color:#31363b; } .ColorScheme-ButtonBackground { color:#eff0f1; } .ColorScheme-ButtonHover { color:#93cee9; } .ColorScheme-ButtonFocus{ color:#3daee9; }
        </style>
    </defs>
    <sodipodi:namedview id="base" pagecolor="#ffffff" bordercolor="#666666" borderopacity="1.0" inkscape:pageopacity="0.0" inkscape:pageshadow="2" inkscape:zoom="14.06" inkscape:cx="-12.306755" inkscape:cy="6.519839" inkscape:document-units="px" inkscape:current-layer="layer1" showgrid="false" fit-margin-top="0" fit-margin-left="0" fit-margin-right="0" fit-margin-bottom="0" inkscape:window-width="1600" inkscape:window-height="847" inkscape:window-x="0" inkscape:window-y="30" inkscape:window-maximized="1" inkscape:showpageshadow="false" borderlayer="true" inkscape:snap-bbox="true" showguides="false">
        <inkscape:grid type="xygrid" id="grid4085"/>
        <sodipodi:guide position="2.0000044,14.00003" orientation="12,0" id="guide4075"/>
        <sodipodi:guide position="2.0000044,2.0000296" orientation="0,12" id="guide4077"/>
        <sodipodi:guide position="14.000004,2.0000296" orientation="-12,0" id="guide4079"/>
        <sodipodi:guide position="14.000004,14.00003" orientation="0,-12" id="guide4081"/>
    </sodipodi:namedview>
    <metadata id="metadata3054">
        <rdf:RDF>
            <cc:Work rdf:about="">
                <dc:format>
                    image/svg+xml
                </dc:format>
                <dc:type rdf:resource="http://purl.org/dc/dcmitype/StillImage"/>
                <dc:title/>
            </cc:Work>
        </rdf:RDF>
    </metadata>
    <g inkscape:label="Capa 1" inkscape:groupmode="layer" id="layer1" transform="translate(-421.71429,-523.79074)">
        <path style="display:inline;overflow:visible;visibility:visible;opacity:0.72;fill:#ffffff;fill-opacity:1;fill-rule:nonzero;stroke:none;stroke-width:2;marker:none;enable-background:accumulate" d="M 7.5 5 C 6.11929 5 5 6.11929 5 7.5 C 5.00013 8.68788 5.83612 9.7116388 7 9.9492188 L 7 13.953125 C 5.83684 14.190545 5.00106 15.213251 5 16.400391 C 5 17.781101 6.11929 18.900391 7.5 18.900391 C 8.88071 18.900391 10 17.781101 10 16.400391 C 9.99987 15.212511 9.16388 14.188752 8 13.951172 L 8 9.9453125 C 8.38986 9.8671125 8.7554462 9.6970387 9.0664062 9.4492188 L 10.279297 10.357422 C 10.096647 10.710652 10.0009 11.10235 10 11.5 C 10 12.88071 11.11929 14 12.5 14 C 13.065287 14 13.581227 13.804644 14 13.488281 L 14 16 L 12 16 L 15.28125 18.8125 L 15.5 19 L 15.71875 18.8125 L 19 16 L 17 16 L 17 13 L 14.488281 13 C 14.804644 12.581227 15 12.065287 15 11.5 C 15 10.11929 13.88071 9 12.5 9 C 11.90804 9.001 11.335666 9.2121731 10.884766 9.5957031 L 9.6914062 8.703125 C 9.8938362 8.334425 9.99998 7.92062 10 7.5 C 10 6.11929 8.88071 5 7.5 5 z " transform="translate(421.71429,523.79074)" id="path4198"/>
        <rect style="color:#4d4d4d;fill:currentColor;fill-opacity:1;stroke:none" id="rect4035" width="0" height="10.999983" x="404.71429" y="534.79071" class="ColorScheme-Text"/>
    </g>
</svg>

<?xml version="1.0" encoding="UTF-8" standalone="no"?>
<!--Created with Inkscape (http://www.inkscape.org/)-->
<svg id="svg3049" xmlns:rdf="http://www.w3.org/1999/02/22-rdf-syntax-ns#" xmlns="http://www.w3.org/2000/svg" height="24" viewBox="0 0 24 24" width="24" version="1.1" xmlns:cc="http://creativecommons.org/ns#" xmlns:dc="http://purl.org/dc/elements/1.1/">
 <defs id="defs3051">
 </defs>
 <metadata id="metadata3054">
  <rdf:RDF>
   <cc:Work rdf:about="">
    <dc:format>image/svg+xml</dc:format>
    <dc:type rdf:resource="http://purl.org/dc/dcmitype/StillImage"/>
    <dc:title/>
   </cc:Work>
  </rdf:RDF>
 </metadata>
 <g id="layer1" transform="translate(-421.71 -523.79)">
  <path id="path4198" opacity="1" fill="#d3dae3" d="m7.5 5c-1.3807 0-2.5 1.1193-2.5 2.5 0.0001 1.1879 0.8361 2.2116 2 2.4492v4.0038c-1.1632 0.238-1.9989 1.26-2 2.447 0 1.381 1.1193 2.5 2.5 2.5s2.5-1.119 2.5-2.5c-0.0001-1.187-0.8361-2.211-2-2.449v-4.0057c0.3899-0.0782 0.7554-0.2483 1.0664-0.4961l1.2126 0.9078c-0.182 0.354-0.278 0.745-0.279 1.143 0 1.381 1.119 2.5 2.5 2.5 0.565 0 1.081-0.195 1.5-0.512v2.512h-2l3.281 2.812 0.219 0.188 0.219-0.188 3.281-2.812h-2v-3h-2.512c0.317-0.419 0.512-0.935 0.512-1.5 0-1.381-1.119-2.5-2.5-2.5-0.592 0.001-1.164 0.2122-1.615 0.5957l-1.1936-0.8926c0.2024-0.3687 0.3086-0.7825 0.3086-1.2031 0-1.3807-1.1193-2.5-2.5-2.5z" transform="translate(421.71 523.79)"/>
 </g>
</svg>
